img/bulb.svg

<svg width="37" height="42" viewBox="0 0 37 42" fill="none" xmlns="http://www.w3.org/2000/svg">
<g filter="url(#filter0_dd_319_1215)">
<path d="M15.6429 14.3333V15.6429C15.6429 17.2208 16.922 18.5 18.5 18.5V18.5C20.078 18.5 21.3571 17.2208 21.3571 15.6429V14.3333M15.6429 14.3333V13.9627C15.6429 13.321 15.3152 12.7353 14.8809 12.2629C14.0253 11.3324 13.5 10.0724 13.5 8.68519C13.5 5.82149 15.7386 3.5 18.5 3.5C21.2614 3.5 23.5 5.82149 23.5 8.68519C23.5 10.0724 22.9747 11.3324 22.1191 12.2629C21.6848 12.7353 21.3571 13.321 21.3571 13.9627V14.3333M15.6429 14.3333H21.3571" stroke="#FFD147" stroke-width="1.5" stroke-linecap="round" stroke-linejoin="round"/>
</g>
<defs>
<filter id="filter0_dd_319_1215" x="-3.5" y="-1" width="44" height="44" filterUnits="userSpaceOnUse" color-interpolation-filters="sRGB">
<feFlood flood-opacity="0" result="BackgroundImageFix"/>
<feColorMatrix in="SourceAlpha" type="matrix" values="0 0 0 0 0 0 0 0 0 0 0 0 0 0 0 0 0 0 127 0" result="hardAlpha"/>
<feMorphology radius="4" operator="erode" in="SourceAlpha" result="effect1_dropShadow_319_1215"/>
<feOffset dy="4"/>
<feGaussianBlur stdDeviation="3"/>
<feColorMatrix type="matrix" values="0 0 0 0 1 0 0 0 0 0.819608 0 0 0 0 0.278431 0 0 0 0.16 0"/>
<feBlend mode="normal" in2="BackgroundImageFix" result="effect1_dropShadow_319_1215"/>
<feColorMatrix in="SourceAlpha" type="matrix" values="0 0 0 0 0 0 0 0 0 0 0 0 0 0 0 0 0 0 127 0" result="hardAlpha"/>
<feMorphology radius="3" operator="erode" in="SourceAlpha" result="effect2_dropShadow_319_1215"/>
<feOffset dy="10"/>
<feGaussianBlur stdDeviation="7.5"/>
<feColorMatrix type="matrix" values="0 0 0 0 1 0 0 0 0 0.819608 0 0 0 0 0.278431 0 0 0 0.16 0"/>
<feBlend mode="normal" in2="effect1_dropShadow_319_1215" result="effect2_dropShadow_319_1215"/>
<feBlend mode="normal" in="SourceGraphic" in2="effect2_dropShadow_319_1215" result="shape"/>
</filter>
</defs>
</svg>

<svg width="37" height="42" fill="none" xmlns="http://www.w3.org/2000/svg"><g filter="url(#a)"><path d="M15.643 14.333v1.31A2.857 2.857 0 0 0 18.5 18.5v0a2.857 2.857 0 0 0 2.857-2.857v-1.31m-5.714 0v-.37c0-.642-.328-1.228-.762-1.7A5.27 5.27 0 0 1 13.5 8.685c0-2.864 2.239-5.185 5-5.185s5 2.321 5 5.185a5.27 5.27 0 0 1-1.38 3.578c-.435.472-.763 1.058-.763 1.7v.37m-5.714 0h5.714" stroke="#FFD147" stroke-width="1.5" stroke-linecap="round" stroke-linejoin="round"/></g><defs><filter id="a" x="-3.5" y="-1" width="44" height="44" filterUnits="userSpaceOnUse" color-interpolation-filters="sRGB"><feFlood flood-opacity="0" result="BackgroundImageFix"/><feColorMatrix in="SourceAlpha" values="0 0 0 0 0 0 0 0 0 0 0 0 0 0 0 0 0 0 127 0" result="hardAlpha"/><feMorphology radius="4" in="SourceAlpha" result="effect1_dropShadow_319_1215"/><feOffset dy="4"/><feGaussianBlur stdDeviation="3"/><feColorMatrix values="0 0 0 0 1 0 0 0 0 0.819608 0 0 0 0 0.278431 0 0 0 0.16 0"/><feBlend in2="BackgroundImageFix" result="effect1_dropShadow_319_1215"/><feColorMatrix in="SourceAlpha" values="0 0 0 0 0 0 0 0 0 0 0 0 0 0 0 0 0 0 127 0" result="hardAlpha"/><feMorphology radius="3" in="SourceAlpha" result="effect2_dropShadow_319_1215"/><feOffset dy="10"/><feGaussianBlur stdDeviation="7.5"/><feColorMatrix values="0 0 0 0 1 0 0 0 0 0.819608 0 0 0 0 0.278431 0 0 0 0.16 0"/><feBlend in2="effect1_dropShadow_319_1215" result="effect2_dropShadow_319_1215"/><feBlend in="SourceGraphic" in2="effect2_dropShadow_319_1215" result="shape"/></filter></defs></svg>
